; generated by Slic3r 1.2.9 on 2018-01-02 at 10:18:50

; external perimeters extrusion width = 0.40mm
; perimeters extrusion width = 0.48mm
; infill extrusion width = 0.48mm
; solid infill extrusion width = 0.48mm
; top infill extrusion width = 0.48mm

M107
M190 S65 ; set bed temperature
M104 S210 ; set temperature
G28 ; home all axes
G1 Z5 F5000 ; lift nozzle

M109 S210 ; wait for temperature to be reached
G21 ; set units to millimeters
G90 ; use absolute coordinates
M82 ; use absolute distances for extrusion
G92 E0
G1 Z0.400 F7800.000
G1 E-2.00000 F2400.00000
G92 E0
G1 X38.921 Y26.158 F7800.000
G1 E2.00000 F2400.00000
G1 X40.227 Y24.382 E2.26187 F1800.000
G1 X41.020 Y23.609 E2.39337
G1 X42.816 Y22.358 E2.65328
G1 X43.756 Y21.910 E2.77695
G1 X45.688 Y21.326 E3.01665
G1 X46.617 Y21.192 E3.12814
G1 X47.574 Y21.124 E3.24205
G1 X154.114 Y21.124 E15.89529
G1 X154.609 Y21.142 E15.95420
G1 X155.094 Y21.178 E16.01190 F1800.000
G1 X156.693 Y21.495 E16.20555
G1 X157.750 Y21.842 E16.33770
G1 X159.638 Y22.815 E16.58992
G1 X160.421 Y23.392 E16.70545
G1 X161.856 Y24.832 E16.94690
G1 X162.459 Y25.656 E17.06813
G1 X163.443 Y27.597 E17.32662
G1 X163.779 Y28.661 E17.45913
G1 X164.076 Y30.228 E17.64860
G1 X164.122 Y31.132 E17.75608
G1 X164.121 Y89.557 E24.69494
G1 X162.399 Y169.213 E34.15747
G1 X162.318 Y170.116 E34.26515
G1 X162.147 Y171.198 E34.39525
G1 X161.497 Y173.199 E34.64512
G1 X161.000 Y174.174 E34.77513
G1 X159.766 Y175.872 E35.02444
G1 X158.991 Y176.647 E35.15461
G1 X157.293 Y177.882 E35.40396
G1 X156.318 Y178.379 E35.53394
G1 X154.317 Y179.029 E35.78381
G1 X153.235 Y179.200 E35.91390
G1 X152.186 Y179.282 E36.03877
G1 X45.686 Y179.282 E48.68727
G1 X44.638 Y179.200 E48.81213
G1 X43.556 Y179.029 E48.94223
G1 X41.555 Y178.379 E49.19211
G1 X40.580 Y177.881 E49.32215
G1 X38.882 Y176.647 E49.57143
G1 X38.107 Y175.872 E49.70160
G1 X36.873 Y174.174 E49.95095
G1 X36.376 Y173.199 E50.08094
G1 X35.726 Y171.198 E50.33081
G1 X35.555 Y170.116 E50.46091
G1 X35.472 Y169.068 E50.58577
G1 X35.472 Y110.568 E57.53353
G1 X37.567 Y30.955 E66.99199
G1 X37.644 Y30.104 E67.09349
G1 X37.799 Y29.107 E67.21336
G1 X38.444 Y27.101 E67.46356
G1 X38.894 Y26.212 E67.58196
G1 E65.58196 F2400.00000
G92 E0
G1 X53.766 Y77.518 F7800.000
G1 E2.00000 F2400.00000
G1 X54.186 Y78.027 E2.07842 F1800.000
G1 X54.567 Y78.741 E2.17450
G1 X54.792 Y79.485 E2.26680
G1 X54.870 Y80.270 E2.36059
G1 X54.796 Y81.038 E2.45217
G1 X54.571 Y81.795 E2.54595
G1 X54.205 Y82.488 E2.63897
G1 X53.714 Y83.095 E2.73175
G1 X53.092 Y83.612 E2.82785
G1 X52.398 Y83.986 E2.92147
G1 X51.633 Y84.220 E3.01645
G1 X50.845 Y84.298 E3.11048
G1 X50.078 Y84.225 E3.20210
G1 X49.321 Y83.999 E3.29586
G1 X48.628 Y83.634 E3.38888
G1 X48.020 Y83.143 E3.48166
G1 X47.504 Y82.521 E3.57776
G1 X47.129 Y81.827 E3.67138
G1 X46.896 Y81.062 E3.76636
G1 X46.817 Y80.274 E3.86038
G1 X46.891 Y79.506 E3.95200
G1 X47.116 Y78.750 E4.04577
G1 X47.482 Y78.057 E4.13878
G1 X47.973 Y77.449 E4.23157
G1 X48.595 Y76.932 E4.32767
G1 X49.289 Y76.558 E4.42129
G1 X50.054 Y76.324 E4.51627 F1800.000
G1 X50.842 Y76.246 E4.61029
G1 X51.610 Y76.320 E4.70192
G1 X52.367 Y76.545 E4.79581
G1 X53.061 Y76.912 E4.88894
G1 X53.684 Y77.418 E4.98431
G1 X53.728 Y77.471 E4.99250
G1 X53.215 Y77.972 F7800.000
G1 X53.589 Y78.427 E5.06248 F1800.000
G1 X53.904 Y79.015 E5.14171
G1 X54.088 Y79.624 E5.21731
G1 X54.152 Y80.272 E5.29457
G1 X54.092 Y80.901 E5.36965
G1 X53.906 Y81.524 E5.44683
G1 X53.606 Y82.093 E5.52326
G1 X53.203 Y82.591 E5.59935
G1 X52.690 Y83.017 E5.67856
G1 X52.122 Y83.324 E5.75532
G1 X51.492 Y83.516 E5.83347
G1 X50.844 Y83.581 E5.91080
G1 X50.215 Y83.520 E5.98590
G1 X49.592 Y83.335 E6.06308
G1 X49.023 Y83.035 E6.13951
G1 X48.524 Y82.632 E6.21560
G1 X48.098 Y82.119 E6.29481
G1 X47.792 Y81.550 E6.37157
G1 X47.599 Y80.921 E6.44971
G1 X47.535 Y80.273 E6.52705
G1 X47.595 Y79.643 E6.60215
G1 X47.781 Y79.021 E6.67932
G1 X48.081 Y78.452 E6.75575
G1 X48.484 Y77.953 E6.83185
G1 X48.997 Y77.527 E6.91106
G1 X49.566 Y77.220 E6.98782
G1 X50.195 Y77.028 E7.06596
G1 X50.390 Y77.009 E7.08919
G1 X50.843 Y76.964 E7.14330 F1800.000
G1 X51.472 Y77.024 E7.21840
G1 X52.096 Y77.210 E7.29569
G1 X52.665 Y77.510 E7.37209
G1 X53.176 Y77.926 E7.45037
G1 X53.604 Y77.882 F7800.000
G1 X52.031 Y74.099 F7800.000
G1 X51.633 Y74.220 E7.49979 F1800.000
G1 X50.845 Y74.298 E7.59381
G1 X50.078 Y74.225 E7.68544
G1 X49.321 Y73.999 E7.77920
G1 X48.628 Y73.634 E7.87222
G1 X48.020 Y73.143 E7.96500
G1 X47.504 Y72.521 E8.06110
G1 X47.129 Y71.827 E8.15472
G1 X46.896 Y71.062 E8.24969
G1 X46.817 Y70.274 E8.34372
G1 X46.891 Y69.506 E8.43534
G1 X47.116 Y68.750 E8.52911
G1 X47.482 Y68.057 E8.62212
G1 X47.973 Y67.449 E8.71491
G1 X48.595 Y66.932 E8.81101
G1 X49.289 Y66.558 E8.90463
G1 X50.054 Y66.324 E8.99960
G1 X50.319 Y66.298 E9.03123
G1 X50.842 Y66.246 E9.09363 F1800.000
G1 X51.610 Y66.320 E9.18526
G1 X52.367 Y66.545 E9.27915
G1 X53.061 Y66.912 E9.37227
G1 X53.684 Y67.418 E9.46765
G1 X54.186 Y68.027 E9.56139
G1 X54.567 Y68.741 E9.65747
G1 X54.792 Y69.485 E9.74976
G1 X54.870 Y70.270 E9.84356
G1 X54.796 Y71.038 E9.93514
G1 X54.571 Y71.795 E10.02892
G1 X54.205 Y72.488 E10.12194
G1 X53.714 Y73.095 E10.21472
G1 X53.092 Y73.612 E10.31081
G1 X52.398 Y73.986 E10.40444
G1 X52.089 Y74.081 E10.44287
G1 X51.823 Y73.416 F7800.000
G1 X51.492 Y73.516 E10.48389 F1800.000
G1 X50.844 Y73.581 E10.56123
G1 X50.215 Y73.520 E10.63633
G1 X49.592 Y73.335 E10.71350
G1 X49.023 Y73.035 E10.78993
G1 X48.524 Y72.632 E10.86602
G1 X48.098 Y72.119 E10.94523
G1 X47.792 Y71.550 E11.02199
G1 X47.599 Y70.921 E11.10014
G1 X47.535 Y70.273 E11.17747
G1 X47.595 Y69.643 E11.25257
G1 X47.781 Y69.021 E11.32975
G1 X48.081 Y68.452 E11.40618
G1 X48.484 Y67.953 E11.48227
G1 X48.997 Y67.527 E11.56148
G1 X49.566 Y67.220 E11.63824
G1 X50.195 Y67.028 E11.71639
G1 X50.390 Y67.009 E11.73962
G1 X50.843 Y66.964 E11.79372 F1800.000
G1 X51.472 Y67.024 E11.86882
G1 X52.096 Y67.210 E11.94611
G1 X52.665 Y67.510 E12.02251
G1 X53.178 Y67.927 E12.10106
G1 X53.589 Y68.427 E12.17790
G1 X53.904 Y69.015 E12.25713
G1 X54.088 Y69.624 E12.33273
G1 X54.152 Y70.272 E12.40998
G1 X54.092 Y70.901 E12.48506
G1 X53.906 Y71.524 E12.56224
G1 X53.606 Y72.093 E12.63867
G1 X53.203 Y72.591 E12.71477
G1 X52.690 Y73.017 E12.79397
G1 X52.122 Y73.324 E12.87073
G1 X51.880 Y73.398 E12.90073
G1 X51.745 Y73.752 F7800.000
G1 E10.90073 F2400.00000
G92 E0
G1 X52.324 Y66.652 F7800.000
G1 X51.933 Y65.273 F7800.000
G1 X51.699 Y65.271 F7800.000
G1 X50.953 Y65.272 F7800.000
G1 X50.845 Y64.184 F7800.000
G1 X50.916 Y64.291 F7800.000
G1 E2.00000 F2400.00000
G1 X50.845 Y64.298 E2.00837 F1800.000
G1 X50.078 Y64.225 E2.09999
G1 X49.321 Y63.999 E2.19375
G1 X48.628 Y63.634 E2.28677
G1 X48.020 Y63.143 E2.37955
G1 X47.504 Y62.521 E2.47565
G1 X47.129 Y61.827 E2.56927
G1 X46.896 Y61.062 E2.66425
G1 X46.817 Y60.274 E2.75827
G1 X46.891 Y59.506 E2.84990
G1 X47.116 Y58.750 E2.94366
G1 X47.482 Y58.057 E3.03667
G1 X47.973 Y57.449 E3.12946
G1 X48.595 Y56.932 E3.22556
G1 X49.289 Y56.558 E3.31918
G1 X50.054 Y56.324 E3.41416
G1 X50.319 Y56.298 E3.44579
G1 X50.842 Y56.246 E3.50818 F1800.000
G1 X51.610 Y56.320 E3.59982
G1 X52.367 Y56.545 E3.69370
G1 X53.061 Y56.912 E3.78683
G1 X53.684 Y57.418 E3.88220
G1 X54.186 Y58.027 E3.97594
G1 X54.567 Y58.741 E4.07203
G1 X54.792 Y59.485 E4.16432
G1 X54.870 Y60.270 E4.25811
G1 X54.796 Y61.038 E4.34969
G1 X54.571 Y61.795 E4.44347
G1 X54.205 Y62.488 E4.53650
G1 X53.714 Y63.095 E4.62927
G1 X53.092 Y63.612 E4.72537
G1 X52.398 Y63.986 E4.81899
G1 X51.633 Y64.220 E4.91397
G1 X50.975 Y64.286 E4.99250
G1 X50.845 Y63.581 F7800.000
G1 X50.215 Y63.520 E5.06768 F1800.000
G1 X49.592 Y63.335 E5.14485
G1 X49.023 Y63.035 E5.22128
G1 X48.524 Y62.632 E5.29738
G1 X48.098 Y62.119 E5.37658
G1 X47.792 Y61.550 E5.45334
G1 X47.599 Y60.921 E5.53149
G1 X47.535 Y60.273 E5.60883
G1 X47.595 Y59.643 E5.68392
G1 X47.781 Y59.021 E5.76110
G1 X48.081 Y58.452 E5.83753
G1 X48.484 Y57.953 E5.91363
G1 X48.997 Y57.527 E5.99284
G1 X49.566 Y57.220 E6.06959
G1 X50.195 Y57.028 E6.14774
G1 X50.390 Y57.009 E6.17097
G1 X50.843 Y56.964 E6.22508 F1800.000
G1 X51.472 Y57.024 E6.30018
G1 X52.096 Y57.210 E6.37746
G1 X52.665 Y57.510 E6.45387
G1 X53.178 Y57.927 E6.53241
G1 X53.589 Y58.427 E6.60925
G1 X53.904 Y59.015 E6.68848
G1 X54.088 Y59.624 E6.76408
G1 X54.152 Y60.272 E6.84133
G1 X54.092 Y60.901 E6.91641
G1 X53.906 Y61.524 E6.99359
G1 X53.606 Y62.093 E7.07003
G1 X53.203 Y62.591 E7.14612
G1 X52.690 Y63.017 E7.22532
G1 X52.122 Y63.324 E7.30208
G1 X51.492 Y63.516 E7.38023
G1 X50.905 Y63.575 E7.45036
G1 X50.634 Y63.921 F7800.000
G1 E5.45036 F2400.00000
G92 E0
G1 X50.842 Y56.361 F7800.000
G1 X50.946 Y55.272 F7800.000
G1 X50.953 Y55.272 F7800.000
G1 X50.845 Y54.184 F7800.000
G1 X50.845 Y54.298 F7800.000
G1 E2.00000 F2400.00000
G1 X50.078 Y54.225 E2.09162 F1800.000
G1 X49.321 Y53.999 E2.18539
G1 X48.628 Y53.634 E2.27840
G1 X48.020 Y53.143 E2.37118
G1 X47.504 Y52.521 E2.46728
G1 X47.129 Y51.827 E2.56090
G1 X46.896 Y51.062 E2.65588
G1 X46.817 Y50.274 E2.74990
G1 X46.891 Y49.506 E2.84153
G1 X47.116 Y48.750 E2.93529
G1 X47.482 Y48.057 E3.02831
G1 X47.973 Y47.449 E3.12109
G1 X48.595 Y46.932 E3.21720
G1 X49.289 Y46.558 E3.31082
G1 X50.054 Y46.324 E3.40579
G1 X50.319 Y46.298 E3.43742
G1 X50.842 Y46.246 E3.49981 F1800.000
G1 X51.610 Y46.320 E3.59145
G1 X52.367 Y46.545 E3.68533
G1 X53.061 Y46.912 E3.77846
G1 X53.684 Y47.418 E3.87384
G1 X54.186 Y48.027 E3.96757
G1 X54.567 Y48.741 E4.06366
G1 X54.792 Y49.485 E4.15595
G1 X54.870 Y50.270 E4.24974
G1 X54.796 Y51.038 E4.34133
G1 X54.571 Y51.795 E4.43510
G1 X54.205 Y52.488 E4.52813
G1 X53.714 Y53.095 E4.62091
G1 X53.092 Y53.612 E4.71700
G1 X52.398 Y53.986 E4.81063
G1 X51.633 Y54.220 E4.90561
G1 X50.905 Y54.292 E4.99250
G1 X50.844 Y53.581 F7800.000
G1 X50.215 Y53.520 E5.06760 F1800.000
G1 X49.592 Y53.335 E5.14478
G1 X49.023 Y53.035 E5.22121
G1 X48.524 Y52.632 E5.29730
G1 X48.098 Y52.119 E5.37651
G1 X47.792 Y51.550 E5.45327
G1 X47.599 Y50.921 E5.53141
G1 X47.535 Y50.273 E5.60875
G1 X47.595 Y49.643 E5.68384
G1 X47.781 Y49.021 E5.76102
G1 X48.081 Y48.452 E5.83745
G1 X48.484 Y47.953 E5.91355
G1 X48.997 Y47.527 E5.99276
G1 X49.566 Y47.220 E6.06952
G1 X50.195 Y47.028 E6.14766
G1 X50.390 Y47.009 E6.17089
G1 X50.843 Y46.964 E6.22500 F1800.000
G1 X51.472 Y47.024 E6.30010
G1 X52.096 Y47.210 E6.37739
G1 X52.665 Y47.510 E6.45379
G1 X53.178 Y47.927 E6.53233
G1 X53.589 Y48.427 E6.60917
G1 X53.904 Y49.015 E6.68840
G1 X54.088 Y49.624 E6.76400
G1 X54.152 Y50.272 E6.84125
G1 X54.092 Y50.901 E6.91633
G1 X53.906 Y51.524 E6.99351
G1 X53.606 Y52.093 E7.06995
G1 X53.203 Y52.591 E7.14604
G1 X52.690 Y53.017 E7.22525
G1 X52.122 Y53.324 E7.30201
G1 X51.492 Y53.516 E7.38016
G1 X50.904 Y53.575 E7.45037
G1 X50.634 Y53.921 F7800.000
G1 E5.45037 F2400.00000
G92 E0
G1 X50.842 Y46.361 F7800.000
G1 X50.946 Y45.272 F7800.000
G1 X50.953 Y45.272 F7800.000
G1 X50.845 Y44.184 F7800.000
G1 X50.845 Y44.298 F7800.000
G1 E2.00000 F2400.00000
G1 X50.078 Y44.225 E2.09162 F1800.000
G1 X49.321 Y43.999 E2.18539
G1 X48.628 Y43.634 E2.27840
G1 X48.020 Y43.143 E2.37118
G1 X47.504 Y42.521 E2.46728
G1 X47.129 Y41.827 E2.56091
G1 X46.896 Y41.062 E2.65588
G1 X46.817 Y40.274 E2.74990
G1 X46.891 Y39.506 E2.84153
G1 X47.116 Y38.750 E2.93529
G1 X47.482 Y38.057 E3.02831
G1 X47.973 Y37.449 E3.12109
G1 X48.595 Y36.932 E3.21720
G1 X49.289 Y36.558 E3.31082
G1 X50.054 Y36.324 E3.40579
G1 X50.319 Y36.298 E3.43742
G1 X50.842 Y36.246 E3.49981 F1800.000
G1 X51.610 Y36.320 E3.59145
G1 X52.367 Y36.545 E3.68533
G1 X53.061 Y36.912 E3.77846
G1 X53.684 Y37.418 E3.87384
G1 X54.186 Y38.027 E3.96757
G1 X54.567 Y38.741 E4.06366
G1 X54.792 Y39.485 E4.15595
G1 X54.870 Y40.270 E4.24974
G1 X54.796 Y41.038 E4.34133
G1 X54.571 Y41.795 E4.43510
G1 X54.205 Y42.488 E4.52813
G1 X53.714 Y43.095 E4.62091
G1 X53.092 Y43.612 E4.71700
G1 X52.398 Y43.986 E4.81063
G1 X51.633 Y44.220 E4.90561
G1 X50.905 Y44.292 E4.99250
G1 X50.844 Y43.581 F7800.000
G1 X50.215 Y43.520 E5.06760 F1800.000
G1 X49.592 Y43.335 E5.14478
G1 X49.023 Y43.035 E5.22121
G1 X48.524 Y42.632 E5.29730
G1 X48.098 Y42.119 E5.37651
G1 X47.792 Y41.550 E5.45327
G1 X47.599 Y40.921 E5.53142
G1 X47.535 Y40.273 E5.60875
G1 X47.595 Y39.643 E5.68385
G1 X47.781 Y39.021 E5.76102
G1 X48.081 Y38.452 E5.83745
G1 X48.484 Y37.953 E5.91355
G1 X48.997 Y37.527 E5.99276
G1 X49.566 Y37.220 E6.06952
G1 X50.195 Y37.028 E6.14766
G1 X50.390 Y37.009 E6.17089
G1 X50.843 Y36.964 E6.22500 F1800.000
G1 X51.472 Y37.024 E6.30010
G1 X52.096 Y37.210 E6.37739
G1 X52.665 Y37.510 E6.45379
G1 X53.178 Y37.927 E6.53233
G1 X53.589 Y38.427 E6.60917
G1 X53.904 Y39.015 E6.68840
G1 X54.088 Y39.624 E6.76400
G1 X54.152 Y40.272 E6.84125
G1 X54.092 Y40.901 E6.91633
G1 X53.906 Y41.524 E6.99351
G1 X53.606 Y42.093 E7.06995
G1 X53.203 Y42.591 E7.14604
G1 X52.690 Y43.017 E7.22525
G1 X52.122 Y43.324 E7.30201
G1 X51.492 Y43.516 E7.38016
G1 X50.904 Y43.575 E7.45037
G1 X50.634 Y43.921 F7800.000
G1 E5.45037 F2400.00000
G92 E0
G1 X54.683 Y41.016 F7800.000
G1 X131.699 Y55.271 F7800.000
G1 X140.946 Y55.272 F7800.000
G1 X145.844 Y55.272 F7800.000
G1 X145.842 Y52.479 F7800.000
G1 X145.842 Y51.361 F7800.000
G1 X145.845 Y51.127 F7800.000
G1 X145.843 Y50.382 F7800.000
G1 X146.932 Y50.274 F7800.000
G1 X146.817 Y50.274 F7800.000
G1 E2.00000 F2400.00000
G1 X146.891 Y49.506 E2.09162 F1800.000
G1 X147.116 Y48.750 E2.18539
G1 X147.482 Y48.057 E2.27840
G1 X147.973 Y47.449 E2.37119
G1 X148.595 Y46.932 E2.46729
G1 X149.289 Y46.558 E2.56091
G1 X150.054 Y46.324 E2.65588
G1 X150.319 Y46.298 E2.68751
G1 X150.842 Y46.246 E2.74991 F1800.000
G1 X151.610 Y46.320 E2.84154
G1 X152.367 Y46.545 E2.93542
G1 X153.061 Y46.912 E3.02855
G1 X153.684 Y47.418 E3.12393
G1 X154.186 Y48.027 E3.21766
G1 X154.567 Y48.741 E3.31375
G1 X154.792 Y49.485 E3.40604
G1 X154.870 Y50.270 E3.49983
G1 X154.796 Y51.038 E3.59142
G1 X154.571 Y51.795 E3.68520
G1 X154.205 Y52.488 E3.77822
G1 X153.714 Y53.095 E3.87100
G1 X153.092 Y53.612 E3.96709
G1 X152.398 Y53.986 E4.06072
G1 X151.633 Y54.220 E4.15570
G1 X150.845 Y54.298 E4.24972
G1 X150.078 Y54.225 E4.34134
G1 X149.321 Y53.999 E4.43511
G1 X148.628 Y53.634 E4.52813
G1 X148.020 Y53.143 E4.62091
G1 X147.504 Y52.521 E4.71701
G1 X147.129 Y51.827 E4.81063
G1 X146.896 Y51.062 E4.90560
G1 X146.823 Y50.334 E4.99250
G1 X147.535 Y50.273 F7800.000
G1 X147.595 Y49.643 E5.06760 F1800.000
G1 X147.781 Y49.021 E5.14478
G1 X148.081 Y48.452 E5.22121
G1 X148.484 Y47.953 E5.29730
G1 X148.997 Y47.527 E5.37651
G1 X149.566 Y47.220 E5.45327
G1 X150.195 Y47.028 E5.53142
G1 X150.389 Y47.009 E5.55465
G1 X150.843 Y46.964 E5.60875 F1800.000
G1 X151.472 Y47.024 E5.68385
G1 X152.096 Y47.210 E5.76114
G1 X152.665 Y47.510 E5.83754
G1 X153.178 Y47.927 E5.91609
G1 X153.589 Y48.427 E5.99292
G1 X153.904 Y49.015 E6.07216
G1 X154.088 Y49.624 E6.14775
G1 X154.152 Y50.272 E6.22501
G1 X154.092 Y50.901 E6.30009
G1 X153.906 Y51.524 E6.37727
G1 X153.606 Y52.093 E6.45370
G1 X153.203 Y52.591 E6.52979
G1 X152.690 Y53.017 E6.60900
G1 X152.122 Y53.324 E6.68576
G1 X151.492 Y53.516 E6.76391
G1 X150.844 Y53.581 E6.84125
G1 X150.215 Y53.520 E6.91634
G1 X149.592 Y53.335 E6.99352
G1 X149.023 Y53.035 E7.06995
G1 X148.524 Y52.632 E7.14604
G1 X148.098 Y52.119 E7.22525
G1 X147.792 Y51.550 E7.30201
G1 X147.599 Y50.921 E7.38016
G1 X147.541 Y50.333 E7.45037
G1 X147.195 Y50.062 F7800.000
G1 X149.441 Y56.512 F7800.000
G1 X150.054 Y56.324 E7.52646 F1800.000
G1 X150.319 Y56.298 E7.55809
G1 X150.842 Y56.246 E7.62049 F1800.000
G1 X151.610 Y56.320 E7.71212
G1 X152.367 Y56.545 E7.80601
G1 X153.061 Y56.912 E7.89913
G1 X153.684 Y57.418 E7.99451
G1 X154.186 Y58.027 E8.08824
G1 X154.567 Y58.741 E8.18433
G1 X154.792 Y59.485 E8.27662
G1 X154.870 Y60.270 E8.37041
G1 X154.796 Y61.038 E8.46200
G1 X154.571 Y61.795 E8.55578
G1 X154.205 Y62.488 E8.64880
G1 X153.714 Y63.095 E8.74158
G1 X153.092 Y63.612 E8.83767
G1 X152.398 Y63.986 E8.93130
G1 X151.633 Y64.220 E9.02628
G1 X150.845 Y64.298 E9.12030
G1 X150.078 Y64.225 E9.21192
G1 X149.321 Y63.999 E9.30569
G1 X148.628 Y63.634 E9.39871
G1 X148.020 Y63.143 E9.49149
G1 X147.504 Y62.521 E9.58759
G1 X147.129 Y61.827 E9.68121
G1 X146.896 Y61.062 E9.77618
G1 X146.817 Y60.274 E9.87021
G1 X146.891 Y59.506 E9.96183
