; generated by Slic3r 1.3.0 on 2020-01-08 at 09:12:28

; external perimeters extrusion width = 0.44mm (3.38mm^3/s)
; perimeters extrusion width = 0.48mm (7.54mm^3/s)
; infill extrusion width = 0.48mm (10.05mm^3/s)
; solid infill extrusion width = 0.48mm (2.51mm^3/s)
; top infill extrusion width = 0.48mm (1.88mm^3/s)

M107
M190 S65 ; set bed temperature and wait for it to be reached
M104 S210 ; set temperature
G28 ; home all axes
G1 Z5 F5000 ; lift nozzle

; Filament gcode

M109 S210 ; set temperature and wait for it to be reached
G21 ; set units to millimeters
G90 ; use absolute coordinates
M82 ; use absolute distances for extrusion
G92 E0
G1 Z0.400 F7800.000
G1 E-2.00000 F2400.00000
G92 E0
G1 X90.585 Y88.640 F7800.000
G1 E2.00000 F2400.00000
G1 F1094.3
G1 X92.384 Y87.192 E2.27422
G1 X94.971 Y86.387 E2.59602
G1 X95.686 Y86.349 E2.68109
G1 X104.314 Y86.349 E3.70572
G1 X105.029 Y86.387 E3.79077
G1 X107.253 Y87.006 E4.06499
G1 X109.415 Y88.640 E4.38684
G1 X109.470 Y88.702 E4.39670
G1 X110.671 Y90.674 E4.67093
G1 X111.108 Y92.508 E4.89486
G1 X111.871 Y100.708 E5.87285
G1 X111.554 Y103.457 E6.20159
G1 X110.713 Y105.879 E6.50597
G1 X109.890 Y107.915 E6.76679
G1 X109.410 Y108.865 E6.89329
G1 X109.334 Y108.990 E6.91062
G1 X108.391 Y110.202 E7.09308
G1 X108.258 Y110.337 E7.11553
G1 X106.381 Y111.682 E7.38976
G1 X104.215 Y112.306 E7.65746
G1 X103.423 Y112.352 E7.75167
G1 X96.577 Y112.352 E8.56480
G1 X95.785 Y112.305 E8.65905
G1 X93.568 Y111.657 E8.93328
G1 X91.742 Y110.337 E9.20093
G1 X91.609 Y110.202 E9.22338
G1 X90.666 Y108.990 E9.40586
G1 X90.590 Y108.865 E9.42318
G1 X90.110 Y107.915 E9.54968
G1 X89.287 Y105.879 E9.81050
G1 X88.446 Y103.457 E10.11488
G1 X88.129 Y100.708 E10.44362
G1 X88.892 Y92.508 E11.42161
G1 X89.498 Y90.280 E11.69583
G1 X90.546 Y88.685 E11.92251
G1 E9.92251 F2400.00000
G92 E0
G1 X103.996 Y103.538 F7800.000
G1 E2.00000 F2400.00000
G1 F1800
G1 X103.676 Y103.533 E2.03803
G1 X103.609 Y103.298 E2.06710
G1 X103.613 Y102.348 E2.17984
G1 X104.182 Y102.939 E2.27720
G1 X104.014 Y103.481 E2.34454
G1 X103.705 Y103.405 F7800.000
G1 X104.478 Y102.337 F7800.000
G1 F1800
G1 X104.556 Y102.243 E2.35116
G1 F1800
G1 X104.599 Y102.173 E2.35489
G1 F1800
G1 X104.670 Y102.063 E2.36205
G1 X104.876 Y101.619 E2.38877
G1 F1800
G1 X104.955 Y101.476 E2.39615
G1 F1800
G1 X104.997 Y101.414 E2.39834
G1 F1800
G1 X105.058 Y101.274 E2.40127
G1 X103.292 Y101.214 F7800.000
G1 F1800
G1 X103.265 Y101.167 E2.40308
G1 F1800
G1 X103.212 Y100.997 E2.40739
G1 E0.40739 F2400.00000
G92 E0
G1 X103.691 Y104.103 F7800.000
G1 E2.00000 F2400.00000
G1 F1800
G1 X103.689 Y104.260 E2.00659
G1 F1800
G1 X103.640 Y104.966 E2.02933
G1 X103.528 Y105.403 E2.04383
G1 F1800
G1 X103.572 Y105.514 E2.04655
G1 E0.04655 F2400.00000
G92 E0
G1 X96.387 Y102.348 F7800.000
G1 E2.00000 F2400.00000
G1 F1800
G1 X96.391 Y103.298 E2.11274
G1 X96.324 Y103.533 E2.14181
G1 X96.004 Y103.538 E2.17984
G1 X95.818 Y102.939 E2.25431
G1 X96.345 Y102.392 E2.34454
G1 X96.346 Y102.746 F7800.000
G1 X96.309 Y104.103 F7800.000
G1 F1800
G1 X96.311 Y104.260 E2.35112
G1 F1800
G1 X96.360 Y104.966 E2.37387
G1 X96.472 Y105.403 E2.38837
G1 F1800
G1 X96.428 Y105.514 E2.39108
G1 E0.39108 F2400.00000
G92 E0
G1 X95.657 Y102.278 F7800.000
G1 E2.00000 F2400.00000
G1 F1800
G1 X95.764 Y102.204 E2.00574
G1 X95.837 Y102.121 E2.01056
G1 X95.613 Y101.904 E2.02424
G1 F1800
G1 X95.389 Y101.686 E2.03321
G1 X95.124 Y101.619 F7800.000
G1 F1800
G1 X95.330 Y102.063 E2.05992
G1 X95.401 Y102.173 E2.06708
G1 F1800
G1 X95.444 Y102.243 E2.07081
G1 F1800
G1 X95.522 Y102.337 E2.07743
G1 X95.657 Y102.278 E2.08540
G1 X95.124 Y101.619 F7800.000
G1 F1800
G1 X95.045 Y101.476 E2.09278
G1 F1800
G1 X95.003 Y101.414 E2.09497
G1 F1800
G1 X94.942 Y101.274 E2.09790
G1 X96.708 Y101.214 F7800.000
G1 F1800
G1 X96.740 Y101.152 E2.10023
G1 F1800
G1 X96.787 Y101.000 E2.10399
G1 Z0.700 F7800.000
G1 X96.223 Y102.526 F7800.000
G1 F600
G1 X96.283 Y102.984 E2.12809
G1 X96.278 Y103.315 E2.14542
G1 X96.059 Y103.341 E2.15697
G1 X95.872 Y102.589 E2.19743
G1 X96.164 Y102.537 E2.21290
G1 X96.563 Y102.062 F7800.000
G1 F600
G1 X96.680 Y102.960 E2.25535
G1 X96.675 Y103.338 E2.27307
G1 X96.602 Y103.763 E2.29327
G1 X96.459 Y104.173 E2.31359
G1 X96.436 Y104.387 E2.32371
G1 X96.449 Y104.728 E2.33967
G1 X96.484 Y105.033 E2.35406
G1 X96.296 Y105.083 E2.36320
G1 X96.097 Y104.617 E2.38691
G1 X95.997 Y104.235 E2.40545
G1 X95.857 Y103.979 E2.41909
G1 X95.821 Y103.949 E2.42129
G1 X95.734 Y103.681 E2.43450
G1 X95.498 Y102.732 E2.48030
G1 X95.408 Y102.449 E2.49423
G1 X95.332 Y102.282 E2.50283
G1 X96.503 Y102.072 E2.55860
G1 X96.433 Y102.440 F7800.000
G1 X96.787 Y100.994 F7800.000
G1 F851.994
G1 X96.947 Y100.406 E2.58577
G1 F851.994
G1 X97.040 Y99.982 E2.60171
G1 F851.994
G1 X97.123 Y99.547 E2.61294
G1 E0.61294 F2400.00000
G92 E0
G1 X94.618 Y100.470 F7800.000
G1 E2.00000 F2400.00000
G1 F851.994
G1 X94.909 Y101.192 E2.03062
G1 F851.994
G1 X95.023 Y101.463 E2.04444
G1 F851.994
G1 X95.108 Y101.626 E2.05512
G1 F851.994
G1 X95.163 Y101.699 E2.06105
G1 X94.618 Y100.470 F7800.000
G1 F851.994
G1 X94.442 Y99.996 E2.07478
G1 E0.07478 F2400.00000
G92 E0
G1 X96.573 Y105.634 F7800.000
G1 E2.00000 F2400.00000
G1 F851.994
G1 X96.707 Y106.134 E2.01840
G1 F851.994
G1 X96.771 Y106.422 E2.02683
G1 F851.994
G1 X96.809 Y106.630 E2.03099
G1 F851.994
G1 X96.828 Y106.807 E2.03311
G1 E0.03311 F2400.00000
G92 E0
G1 X96.405 Y94.780 F7800.000
G1 E2.00000 F2400.00000

G1 F3600
G1 X96.432 Y94.852 E2.00401
G1 X96.622 Y95.134 E2.02176
G1 X96.904 Y95.395 E2.04187
G1 X97.209 Y95.519 E2.05905
G1 X96.976 Y95.715 E2.07492
G1 X96.840 Y96.061 E2.09437
G1 X96.780 Y96.378 E2.11122
G1 X96.731 Y96.438 E2.11528
G1 X96.600 Y96.474 E2.12239
G1 X96.449 Y96.458 E2.13032
G1 X96.336 Y96.409 E2.13672
G1 X96.278 Y96.255 E2.14533
G1 X96.001 Y95.210 E2.20183
G1 X96.204 Y94.772 E2.22702
G1 X96.346 Y94.778 E2.23442

G1 X96.662 Y94.210 F7800.000
G1 F851.994
G1 X96.721 Y94.486 E2.24764

G1 F3600
G1 X96.788 Y94.671 E2.25791
G1 X96.925 Y94.874 E2.27071
G1 X97.121 Y95.055 E2.28463
G1 X97.440 Y95.172 E2.30237
G1 X97.727 Y95.162 E2.31740

G1 F851.994
G1 X98.125 Y94.826 E2.34182
G1 X98.270 Y94.944 E2.35058
G1 X98.162 Y95.142 E2.36116
G1 X97.996 Y95.283 E2.37136
G1 X97.923 Y95.370 E2.37671

G1 F3600
G1 X97.731 Y95.599 E2.39230
G1 X97.309 Y95.954 E2.42111
G1 X97.223 Y96.172 E2.43333
G1 X97.167 Y96.469 E2.44914
G1 X97.125 Y96.583 E2.45550
G1 X97.003 Y96.733 E2.46560
G1 X96.866 Y96.813 E2.47386
G1 X96.632 Y96.877 E2.48657
G1 X96.347 Y96.846 E2.50154
G1 X96.106 Y96.743 E2.51522
G1 X95.985 Y96.603 E2.52489
G1 X95.899 Y96.378 E2.53748
G1 X95.627 Y95.379 E2.59159
G1 X95.545 Y94.900 E2.61694
G1 X95.501 Y94.781 E2.62359
G1 X95.624 Y94.679 E2.63192
G1 X95.769 Y94.766 E2.64074
G1 X95.824 Y94.647 E2.64756

G1 F851.994
G1 X95.955 Y94.365 E2.66214
G1 X96.433 Y94.384 E2.68459
G1 X96.483 Y94.203 E2.69338
G1 X96.602 Y94.208 E2.69894
G1 X96.618 Y94.453 F7800.000
G1 X96.584 Y93.770 F7800.000
G1 F851.994
G1 X96.455 Y93.883 E2.70684
G1 F851.994
G1 X96.346 Y93.977 E2.71189
G1 X96.584 Y93.770 F7800.000
G1 F851.994
G1 X96.604 Y93.750 E2.71345
G1 X96.630 Y93.235 E2.74285
G1 F851.994
G1 X96.643 Y93.130 E2.74790
G1 F851.994
G1 X96.683 Y92.818 E2.76045
G1 F851.994
G1 X96.713 Y92.552 E2.76863
G1 F851.994
G1 X96.735 Y92.366 E2.77269
G1 F851.994
G1 X96.766 Y92.229 E2.77455
G1 E0.77455 F2400.00000
G92 E0
G1 X94.836 Y93.560 F7800.000
G1 E2.00000 F2400.00000
G1 F851.994
G1 X94.871 Y93.662 E2.00598
G1 X95.009 Y93.893 E2.02082
G1 F851.994
G1 X95.419 Y94.563 E2.05872
G1 X94.836 Y93.560 F7800.000
G1 F851.994
G1 X94.792 Y93.507 E2.06205
G1 F851.994
G1 X94.721 Y93.416 E2.06674
G1 F851.994
G1 X94.560 Y93.145 E2.07681
G1 X94.254 Y92.714 E2.09369
G1 E0.09369 F2400.00000
G92 E0
G1 X96.270 Y95.128 F7800.000
G1 E2.00000 F2400.00000
G1 F600
G1 X96.672 Y95.915 E2.01994
G1 X96.530 Y96.256 F7800.000
G1 F600
G1 X96.537 Y95.341 E2.03847
G1 E0.03847 F2400.00000
G92 E0
G1 X102.791 Y95.519 F7800.000
G1 E2.00000 F2400.00000

G1 F3600
G1 X103.096 Y95.395 E2.01718
G1 X103.378 Y95.134 E2.03729
G1 X103.568 Y94.852 E2.05504
G1 X103.595 Y94.780 E2.05905
G1 X103.796 Y94.772 E2.06959
G1 X103.999 Y95.210 E2.09478
G1 X103.722 Y96.255 E2.15128
G1 X103.664 Y96.409 E2.15989
G1 X103.551 Y96.458 E2.16629
G1 X103.400 Y96.474 E2.17422
G1 X103.295 Y96.445 E2.17991
G1 X103.225 Y96.402 E2.18425
G1 X103.160 Y96.061 E2.20237
G1 X103.024 Y95.715 E2.22182
G1 X102.837 Y95.558 E2.23456

G1 X102.879 Y95.055 F7800.000

G1 F3600
G1 X103.075 Y94.874 E2.24847
G1 X103.212 Y94.671 E2.26128
G1 X103.279 Y94.486 E2.27154

G1 F851.994
G1 X103.338 Y94.210 E2.28476
G1 X103.516 Y94.203 E2.29313
G1 X103.567 Y94.384 E2.30192
G1 X104.045 Y94.365 E2.32437
G1 X104.176 Y94.647 E2.33895

G1 F3600
G1 X104.231 Y94.766 E2.34577
G1 X104.376 Y94.679 E2.35459
G1 X104.499 Y94.781 E2.36291
G1 X104.455 Y94.900 E2.36957
G1 X104.373 Y95.379 E2.39492
G1 X104.101 Y96.378 E2.44903
G1 X104.015 Y96.603 E2.46162
G1 X103.894 Y96.743 E2.47129
G1 X103.653 Y96.846 E2.48497
G1 X103.368 Y96.877 E2.49994
G1 X103.136 Y96.814 E2.51252
G1 X102.969 Y96.711 E2.52278
G1 X102.877 Y96.588 E2.53081
G1 X102.833 Y96.469 E2.53742
G1 X102.777 Y96.172 E2.55323
G1 X102.691 Y95.954 E2.56545
G1 X102.269 Y95.599 E2.59425
G1 X102.077 Y95.371 E2.60985

G1 F851.994
G1 X102.004 Y95.283 E2.61519
G1 X101.838 Y95.142 E2.62540
G1 X101.730 Y94.944 E2.63598
G1 X101.875 Y94.826 E2.64473
G1 X102.273 Y95.162 E2.66916

G1 F3600
G1 X102.560 Y95.172 E2.68418
G1 X102.824 Y95.077 E2.69879

G1 X103.435 Y93.789 F7800.000
G1 F851.994
G1 X103.396 Y93.750 E2.70132
G1 F851.994
G1 X103.363 Y93.183 E2.73256
G1 F851.994
G1 X103.337 Y92.974 E2.74265
G1 F851.994
G1 X103.297 Y92.663 E2.75520
G1 F851.994
G1 X103.278 Y92.442 E2.76195
G1 F851.994
G1 X103.263 Y92.323 E2.76456
G1 F851.994
G1 X103.234 Y92.229 E2.76586
G1 X103.435 Y93.789 F7800.000
G1 F851.994
G1 X103.654 Y93.977 E2.77596
G1 X104.581 Y94.563 F7800.000
G1 F851.994
G1 X105.060 Y93.777 E2.81999
G1 F851.994
G1 X105.186 Y93.533 E2.83516
G1 F851.994
G1 X105.240 Y93.471 E2.83916
G1 F851.994
G1 X105.440 Y93.145 E2.85474
G1 F851.994
G1 X105.746 Y92.714 E2.87161
G1 E0.87161 F2400.00000
G92 E0
G1 X103.730 Y95.128 F7800.000
G1 E2.00000 F2400.00000
G1 F600
G1 X103.328 Y95.915 E2.01857
G1 X103.470 Y96.256 F7800.000
G1 F600
G1 X103.463 Y95.341 E2.03710
G1 E0.03710 F2400.00000
G92 E0
G1 X103.778 Y102.522 F7800.000
G1 E2.00000 F2400.00000
G1 F600
G1 X104.128 Y102.588 E2.01862
G1 X103.941 Y103.341 E2.05913
G1 X103.722 Y103.315 E2.07068
G1 X103.717 Y102.984 E2.08802
G1 X103.770 Y102.581 E2.10921
G1 X103.439 Y102.053 F7800.000
G1 F600
G1 X104.667 Y102.286 E2.16776
G1 X104.592 Y102.449 E2.17618
G1 X104.502 Y102.732 E2.19010
G1 X104.266 Y103.681 E2.23591
G1 X104.179 Y103.949 E2.24912
G1 X104.143 Y103.979 E2.25132
G1 X104.003 Y104.235 E2.26496
G1 X103.903 Y104.617 E2.28349
G1 X103.704 Y105.083 E2.30720
G1 X103.516 Y105.033 E2.31635
G1 X103.551 Y104.728 E2.33073
G1 X103.564 Y104.387 E2.34670
G1 X103.541 Y104.173 E2.35681
G1 X103.398 Y103.763 E2.37713
G1 X103.325 Y103.338 E2.39734
G1 X103.320 Y102.960 E2.41505
G1 X103.431 Y102.113 E2.45510
G1 X103.750 Y102.304 F7800.000
G1 X104.837 Y101.699 F7800.000
G1 F851.994
G1 X104.952 Y101.522 E2.46977
G1 F851.994
G1 X105.003 Y101.404 E2.47720
G1 F851.994
G1 X105.118 Y101.136 E2.49122
G1 F851.994
G1 X105.382 Y100.470 E2.52118
G1 F851.994
G1 X105.558 Y99.996 E2.53799
G1 E0.53799 F2400.00000
G92 E0
G1 X103.184 Y100.895 F7800.000
G1 E2.00000 F2400.00000
G1 F851.994
G1 X103.213 Y100.994 E2.00492
G1 X103.184 Y100.895 F7800.000
G1 F851.994
G1 X102.983 Y100.095 E2.03903
G1 F851.994
G1 X102.866 Y99.561 E2.05579
G1 E0.05579 F2400.00000
G92 E0
G1 X103.427 Y105.634 F7800.000
G1 E2.00000 F2400.00000
G1 F851.994
G1 X103.293 Y106.134 E2.01840
G1 F851.994
G1 X103.229 Y106.421 E2.02679
G1 F851.994
G1 X103.192 Y106.626 E2.03093
G1 F851.994
G1 X103.180 Y106.791 E2.03291
G1 Z1.000 F7800.000
G1 E0.03291 F2400.00000
G92 E0
G1 X104.136 Y102.872 F7800.000
G1 E2.00000 F2400.00000
G1 F600
G1 X104.429 Y102.634 E2.01768
G1 X104.209 Y103.766 E2.07171
G1 X104.191 Y103.956 E2.08066
G1 X104.161 Y104.041 E2.08486
G1 X103.673 Y104.544 E2.11768
G1 X103.412 Y103.939 E2.14853
G1 X103.342 Y103.421 E2.17302
G1 X103.716 Y102.599 E2.21533
G1 X103.778 Y102.672 E2.21979
G1 X104.039 Y102.354 E2.23907
G1 X104.125 Y102.813 E2.26094
G1 X104.409 Y103.132 F7800.000
G1 X103.363 Y102.596 F7800.000
G1 F976.167
G1 X103.351 Y102.692 E2.26195
G1 X103.268 Y102.827 E2.26360
G1 X103.170 Y103.141 E2.26703
G1 X103.472 Y102.193 F7800.000
G1 F976.167
G1 X103.484 Y102.036 E2.27193
G1 F976.167
G1 X103.443 Y101.771 E2.28228
G1 X103.298 Y101.308 E2.30099
G1 F976.167
G1 X103.281 Y101.285 E2.30189
G1 E0.30189 F2400.00000
G92 E0
G1 X103.703 Y95.216 F7800.000
G1 E2.00000 F2400.00000
G1 F600
G1 X104.008 Y94.946 E2.02129
G1 X103.989 Y95.309 E2.04026
G1 X103.715 Y96.299 E2.09393
G1 X103.651 Y96.458 E2.10290
G1 X103.609 Y96.514 E2.10653
G1 X103.543 Y96.547 E2.11039
G1 X103.413 Y96.561 E2.11725
G1 X103.302 Y96.532 E2.12323
G1 X103.038 Y95.822 E2.16282
G1 X102.910 Y95.622 E2.17522
G1 X103.237 Y95.319 E2.19850
G1 X103.509 Y94.982 E2.22117
G1 X103.665 Y95.170 E2.23393
G1 X103.748 Y94.646 F7800.000
G1 F600
G1 X104.005 Y94.418 E2.25007
G1 X104.139 Y94.646 E2.26246
G1 X104.447 Y94.770 E2.27801
G1 X104.407 Y94.920 E2.28530
G1 X104.383 Y95.373 E2.30653
G1 X104.092 Y96.427 E2.35775
G1 X104.000 Y96.656 E2.36932
G1 X103.870 Y96.828 E2.37944
G1 X103.656 Y96.934 E2.39060
G1 X103.383 Y96.963 E2.40346
G1 X103.169 Y96.908 E2.41383
G1 X103.024 Y96.817 E2.42183
G1 X102.958 Y96.737 E2.42673
G1 X102.839 Y96.464 E2.44065
G1 X102.678 Y95.996 E2.46385
G1 X102.299 Y95.376 E2.49790
G1 X102.658 Y95.314 E2.51495
G1 X102.946 Y95.047 E2.53332
G1 X103.104 Y94.851 E2.54515
G1 X103.339 Y94.499 E2.56498
G1 X103.432 Y94.264 E2.57681
G1 X103.709 Y94.600 E2.59721
G1 X104.015 Y94.863 F7800.000
G1 X104.141 Y93.958 F7800.000
G1 F976.167
G1 X104.177 Y93.823 E2.60073
G1 F976.167
G1 X104.228 Y93.596 E2.60921
G1 F976.167
G1 X104.335 Y93.212 E2.62691
G1 X104.365 Y93.188 E2.62861
G1 F976.167
G1 X104.507 Y93.044 E2.63608
G1 X105.142 Y93.630 F7800.000
G1 F976.167
G1 X104.979 Y93.927 E2.65014
G1 F976.167
G1 X104.878 Y94.104 E2.65677
G1 F976.167
G1 X104.561 Y94.579 E2.67171
G1 E0.67171 F2400.00000
G92 E0
G1 X102.090 Y95.189 F7800.000
G1 E2.00000 F2400.00000
G1 F976.167
G1 X101.830 Y94.909 E2.00959
G1 F976.167
G1 X101.787 Y94.869 E2.01055
G1 F976.167
G1 X101.724 Y94.797 E2.01151
G1 X101.634 Y94.759 E2.01249
G1 E0.01249 F2400.00000
G92 E0
G1 X96.297 Y95.216 F7800.000
G1 E2.00000 F2400.00000
G1 F600
G1 X96.491 Y94.982 E2.01590
G1 X96.757 Y95.311 E2.03803
G1 X97.083 Y95.634 E2.06198
G1 X96.962 Y95.822 E2.07366
G1 X96.698 Y96.532 E2.11325
G1 X96.587 Y96.561 E2.11923
G1 X96.457 Y96.547 E2.12609
G1 X96.391 Y96.514 E2.12994
G1 X96.349 Y96.458 E2.13358
G1 X96.285 Y96.299 E2.14254
G1 X96.011 Y95.309 E2.19622
G1 X95.992 Y94.946 E2.21519
G1 X96.252 Y95.177 E2.23334
G1 X96.252 Y94.646 F7800.000
G1 F600
G1 X96.568 Y94.264 E2.25655
G1 X96.661 Y94.499 E2.26838
G1 X96.896 Y94.851 E2.28821
G1 X97.052 Y95.044 E2.29987
G1 X97.256 Y95.246 E2.31333
G1 X97.359 Y95.317 E2.31917
G1 X97.701 Y95.376 E2.33540
G1 X97.322 Y95.996 E2.36945
G1 X97.161 Y96.464 E2.39265
G1 X97.042 Y96.737 E2.40657
G1 X96.976 Y96.817 E2.41147
G1 X96.831 Y96.908 E2.41947
G1 X96.617 Y96.963 E2.42984
G1 X96.344 Y96.934 E2.44270
G1 X96.130 Y96.828 E2.45386
G1 X96.000 Y96.656 E2.46398
G1 X95.908 Y96.427 E2.47555
G1 X95.617 Y95.373 E2.52676
G1 X95.593 Y94.920 E2.54799
G1 X95.553 Y94.770 E2.55529
G1 X95.861 Y94.646 E2.57084
G1 X95.995 Y94.418 E2.58323
G1 X96.208 Y94.607 E2.59655
G1 X96.611 Y94.824 F7800.000
G1 X95.924 Y94.104 F7800.000
G1 F976.167
G1 X95.663 Y93.207 E2.63770
G1 X94.857 Y93.634 F7800.000
G1 F976.167
G1 X94.948 Y93.797 E2.64560
G1 F976.167
G1 X95.115 Y94.091 E2.65632
G1 F976.167
G1 X95.257 Y94.310 E2.66225
G1 F976.167
G1 X95.439 Y94.579 E2.67219
G1 E0.67219 F2400.00000
G92 E0
G1 X97.910 Y95.189 F7800.000
G1 E2.00000 F2400.00000
G1 F976.167
G1 X98.111 Y94.972 E2.00819
G1 F976.167
G1 X98.170 Y94.909 E2.01001
G1 F976.167
G1 X98.276 Y94.797 E2.01169
G1 X98.366 Y94.759 E2.01275
